src/assets/icons/TaskChecklist.svg

<svg id="Layer_1" viewBox="0 0 24 24" xmlns="http://www.w3.org/2000/svg" data-name="Layer 1"><path d="m20 11.5v8c0 2.481-2.019 4.5-4.5 4.5h-11c-2.481 0-4.5-2.019-4.5-4.5v-15c0-2.481 2.019-4.5 4.5-4.5h11c.38 0 .759.048 1.124.142.268.069.429.341.36.609-.068.267-.345.428-.608.36-.285-.073-.58-.11-.876-.11h-11c-1.93 0-3.5 1.57-3.5 3.5v15c0 1.93 1.57 3.5 3.5 3.5h11c1.93 0 3.5-1.57 3.5-3.5v-8.001c0-.276.224-.5.5-.5s.5.224.5.5zm-8.5 6.5h4c.276 0 .5-.224.5-.5s-.224-.5-.5-.5h-4c-.276 0-.5.224-.5.5s.224.5.5.5zm12.5-15.5c0 .668-.26 1.296-.732 1.768l-6.707 6.707c-.66.661-1.539 1.025-2.475 1.025h-1.586c-.276 0-.5-.224-.5-.5v-1.586c0-.921.374-1.823 1.025-2.475l6.707-6.707c.975-.975 2.561-.975 3.535 0 .473.472.732 1.1.732 1.768zm-1 0c0-.401-.156-.777-.439-1.061-.584-.585-1.537-.585-2.121 0l-6.707 6.707c-.466.465-.732 1.11-.732 1.768v1.086h1.086c.668 0 1.296-.26 1.768-.732l6.707-6.707c.283-.283.439-.66.439-1.061zm-13.854 12.646-2.589 2.589c-.344.343-.89.354-1.242.034l-1.471-1.403c-.199-.19-.517-.184-.706.017-.191.199-.184.516.017.706l1.478 1.41c.365.336.826.502 1.286.502.487 0 .974-.187 1.346-.559l2.589-2.589c.195-.195.195-.512 0-.707s-.512-.195-.707 0zm.707-5c-.195-.195-.512-.195-.707 0l-2.589 2.589c-.344.342-.89.355-1.242.034l-1.471-1.403c-.199-.189-.517-.183-.706.017-.191.2-.184.516.017.707l1.478 1.41c.365.336.826.502 1.286.502.487 0 .974-.187 1.346-.559l2.589-2.589c.195-.195.195-.512 0-.707zm0-5c-.195-.195-.512-.195-.707 0l-2.589 2.589c-.344.343-.893.355-1.241.034l-1.471-1.404c-.201-.19-.518-.183-.707.017-.191.2-.184.516.016.707l1.479 1.411c.366.335.826.501 1.286.501.487 0 .974-.187 1.346-.559l2.589-2.589c.195-.195.195-.512 0-.707z"/></svg>

<svg width="24" height="24" viewBox="0 0 24 24" fill="none" xmlns="http://www.w3.org/2000/svg">
<path d="M20 11.5V19.5C20 21.981 17.981 24 15.5 24H4.5C2.019 24 0 21.981 0 19.5V4.5C0 2.019 2.019 0 4.5 0H15.5C15.88 0 16.259 0.048 16.624 0.142C16.892 0.211 17.053 0.483 16.984 0.751C16.916 1.018 16.639 1.179 16.376 1.111C16.091 1.038 15.796 1.001 15.5 1.001H4.5C2.57 1.001 1 2.571 1 4.501V19.501C1 21.431 2.57 23.001 4.5 23.001H15.5C17.43 23.001 19 21.431 19 19.501V11.5C19 11.224 19.224 11 19.5 11C19.776 11 20 11.224 20 11.5ZM11.5 18H15.5C15.776 18 16 17.776 16 17.5C16 17.224 15.776 17 15.5 17H11.5C11.224 17 11 17.224 11 17.5C11 17.776 11.224 18 11.5 18ZM24 2.5C24 3.168 23.74 3.796 23.268 4.268L16.561 10.975C15.901 11.636 15.022 12 14.086 12H12.5C12.224 12 12 11.776 12 11.5V9.914C12 8.993 12.374 8.091 13.025 7.439L19.732 0.732C20.707 -0.243 22.293 -0.243 23.267 0.732C23.74 1.204 24 1.832 24 2.5ZM23 2.5C23 2.099 22.844 1.723 22.561 1.439C21.977 0.854 21.024 0.854 20.44 1.439L13.733 8.146C13.267 8.611 13.001 9.256 13.001 9.914V11H14.087C14.755 11 15.383 10.74 15.855 10.268L22.562 3.561C22.845 3.278 23 2.901 23 2.5ZM9.146 15.146L6.557 17.735C6.213 18.078 5.667 18.089 5.315 17.769L3.844 16.366C3.645 16.176 3.327 16.182 3.138 16.383C2.947 16.582 2.954 16.899 3.155 17.089L4.633 18.499C4.998 18.835 5.459 19.001 5.919 19.001C6.406 19.001 6.893 18.814 7.265 18.442L9.854 15.853C10.049 15.658 10.049 15.341 9.854 15.146C9.659 14.951 9.342 14.951 9.147 15.146H9.146ZM9.853 10.146C9.658 9.951 9.341 9.951 9.146 10.146L6.557 12.735C6.213 13.077 5.667 13.09 5.315 12.769L3.844 11.366C3.645 11.177 3.327 11.183 3.138 11.383C2.947 11.583 2.954 11.899 3.155 12.09L4.633 13.5C4.998 13.836 5.459 14.002 5.919 14.002C6.406 14.002 6.893 13.815 7.265 13.443L9.854 10.854C10.049 10.659 10.049 10.342 9.854 10.147L9.853 10.146ZM9.853 5.146C9.658 4.951 9.341 4.951 9.146 5.146L6.557 7.735C6.213 8.078 5.664 8.09 5.316 7.769L3.845 6.365C3.644 6.175 3.327 6.182 3.138 6.382C2.947 6.582 2.954 6.898 3.154 7.089L4.633 8.5C4.999 8.835 5.459 9.001 5.919 9.001C6.406 9.001 6.893 8.814 7.265 8.442L9.854 5.853C10.049 5.658 10.049 5.341 9.854 5.146H9.853Z" fill="#787891"/>
</svg>
